svg/fluentui-system-icons/ic_fluent_scan_type_20_filled.svg

<svg width="20" height="20" viewBox="0 0 20 20" fill="none" xmlns="http://www.w3.org/2000/svg">
<path d="M4.75 3.5C4.05964 3.5 3.5 4.05964 3.5 4.75V6.25C3.5 6.66421 3.16421 7 2.75 7C2.33579 7 2 6.66421 2 6.25V4.75C2 3.23122 3.23122 2 4.75 2H6.25C6.66421 2 7 2.33579 7 2.75C7 3.16421 6.66421 3.5 6.25 3.5H4.75ZM4.75 16.5C4.05964 16.5 3.5 15.9404 3.5 15.25V13.75C3.5 13.3358 3.16421 13 2.75 13C2.33579 13 2 13.3358 2 13.75V15.25C2 16.7688 3.23122 18 4.75 18H6.25C6.66421 18 7 17.6642 7 17.25C7 16.8358 6.66421 16.5 6.25 16.5H4.75ZM16.5 4.75C16.5 4.05964 15.9404 3.5 15.25 3.5H13.75C13.3358 3.5 13 3.16421 13 2.75C13 2.33579 13.3358 2 13.75 2H15.25C16.7688 2 18 3.23122 18 4.75V6.25C18 6.66421 17.6642 7 17.25 7C16.8358 7 16.5 6.66421 16.5 6.25V4.75ZM15.25 16.5C15.9404 16.5 16.5 15.9404 16.5 15.25V13.75C16.5 13.3358 16.8358 13 17.25 13C17.6642 13 18 13.3358 18 13.75V15.25C18 16.7688 16.7688 18 15.25 18H13.75C13.3358 18 13 17.6642 13 17.25C13 16.8358 13.3358 16.5 13.75 16.5H15.25ZM6.5 5C6.08579 5 5.75 5.33579 5.75 5.75V6.75C5.75 7.16421 6.08579 7.5 6.5 7.5C6.91421 7.5 7.25 7.16421 7.25 6.75V6.5H9.25V13.5H9C8.58579 13.5 8.25 13.8358 8.25 14.25C8.25 14.6642 8.58579 15 9 15H11C11.4142 15 11.75 14.6642 11.75 14.25C11.75 13.8358 11.4142 13.5 11 13.5H10.75V6.5H12.75V6.75C12.75 7.16421 13.0858 7.5 13.5 7.5C13.9142 7.5 14.25 7.16421 14.25 6.75V5.75C14.25 5.33579 13.9142 5 13.5 5H6.5Z" fill="#212121"/>
</svg>

<svg xmlns="http://www.w3.org/2000/svg" width="20" height="20"><path d="M4.75 3.5c-.69 0-1.25.56-1.25 1.25v1.5a.75.75 0 0 1-1.5 0v-1.5A2.75 2.75 0 0 1 4.75 2h1.5a.75.75 0 0 1 0 1.5h-1.5Zm0 13c-.69 0-1.25-.56-1.25-1.25v-1.5a.75.75 0 0 0-1.5 0v1.5A2.75 2.75 0 0 0 4.75 18h1.5a.75.75 0 0 0 0-1.5h-1.5ZM16.5 4.75c0-.69-.56-1.25-1.25-1.25h-1.5a.75.75 0 0 1 0-1.5h1.5A2.75 2.75 0 0 1 18 4.75v1.5a.75.75 0 0 1-1.5 0v-1.5ZM15.25 16.5c.69 0 1.25-.56 1.25-1.25v-1.5a.75.75 0 0 1 1.5 0v1.5A2.75 2.75 0 0 1 15.25 18h-1.5a.75.75 0 0 1 0-1.5h1.5ZM6.5 5a.75.75 0 0 0-.75.75v1a.75.75 0 0 0 1.5 0V6.5h2v7H9A.75.75 0 0 0 9 15h2a.75.75 0 0 0 0-1.5h-.25v-7h2v.25a.75.75 0 0 0 1.5 0v-1A.75.75 0 0 0 13.5 5h-7Z"/></svg>
